!!!OTL: SIE GING ZUM SONNTAGSTANZE
!!!ARE: Europa, Mitteleuropa, Deutschland, Thueringen
!!!SCT: B0148
!!!YEM: Copyright 1995, estate of Helmut Schaffrath.
**kern
*ICvox
*Ivox
*M6/8
*k[b-e-]
*B-:
{8f
=1
4b-
8b-
8a
8g
8a
=2
4.b-
4f}
{8f
=3
4dd
8b-
8f
8g
8a
=4
4.b-
4r}
{8dd
=5
4dd
8dd
8dd
8cc
8dd
=6
4b-
8a
8g
8a}
{8b-
=7
8cc
8dd
8cc
8b-
8a
8g
=8
4.f
4r}
{8f
=9
8ee-
8dd
8cc
8cc
8b-
8a
=10
8b-
8dd
8cc
8b-
8a}
{8b-
=11
8g
8ee-
8dd
8cc
8b-
8a
=12
4.b-
4r}
==
!!!AGN: Ballade, Romanze
!!!ONB: ESAC (Essen Associative Code) Database: BOEHME
!!!AMT: compound duple
!!!AIN: vox
!!!EED: Helmut Schaffrath
!!!EEV: 1.0
*-
